packages/icons/src/components/Icon/assets/small-outline/thumbs-up.svg

<svg width="16" height="16" viewBox="0 0 16 16" fill="none" xmlns="http://www.w3.org/2000/svg">
<path fill-rule="evenodd" clip-rule="evenodd" d="M8.21154 2.23077C8.21154 1.55103 8.76257 1 9.44231 1C10.6531 1 11.6346 1.98153 11.6346 3.19231C11.6346 3.94741 11.4836 4.66889 11.2097 5.32692H12.8896C13.86 5.32692 14.8348 5.99427 14.9522 7.09679C14.9838 7.39377 15 7.69513 15 8C15 10.0027 14.3018 11.8443 13.1361 13.2917C12.7254 13.8016 12.1127 14.0385 11.5232 14.0385H8.94888C8.55822 14.0385 8.17012 13.9755 7.79951 13.8519L5.80307 13.1865C5.58541 13.1139 5.35748 13.0769 5.12805 13.0769H5.03801C4.95614 13.585 4.55341 14.0385 3.92992 14.0385H3.348C2.50474 14.0385 1.64436 13.5416 1.36634 12.6304C1.12796 11.8491 1 11.0206 1 10.1635C1 9.07264 1.20726 8.02842 1.58523 7.06932C1.9113 6.24192 2.72185 5.80769 3.51241 5.80769H4.18725C4.53012 5.80769 4.80301 5.94134 4.99401 6.14449C5.09105 6.07976 5.18538 5.99285 5.27145 5.8831C5.83104 5.16959 6.5364 4.57558 7.34331 4.14585C7.70306 3.95426 7.94918 3.70377 8.05886 3.42956C8.15972 3.17742 8.21154 2.90835 8.21154 2.63678V2.23077ZM3.5804 7.30769H3.51241C3.23627 7.30769 3.04581 7.45427 2.98078 7.61929C2.6707 8.40611 2.5 9.26395 2.5 10.1635C2.5 10.8706 2.60548 11.5517 2.80104 12.1926C2.85553 12.3712 3.05189 12.5385 3.348 12.5385H3.36942C3.08105 11.8016 2.92308 11.0001 2.92308 10.1635C2.92308 9.14026 3.1593 8.17067 3.5804 7.30769ZM5.04985 7.73249C5.63321 7.59764 6.11811 7.23419 6.45175 6.80878C6.88339 6.25841 7.42731 5.80057 8.04839 5.46981C8.61446 5.16834 9.1717 4.68633 9.45158 3.98664C9.62331 3.55732 9.71154 3.09918 9.71154 2.63678V2.5543C9.96015 2.65934 10.1346 2.90545 10.1346 3.19231C10.1346 3.81674 9.99409 4.40625 9.74363 4.93278C9.68235 5.06161 9.64437 5.19448 9.62679 5.32692H9.44231C9.0281 5.32692 8.69231 5.66271 8.69231 6.07692C8.69231 6.49114 9.0281 6.82692 9.44231 6.82692H12.8896C13.2353 6.82692 13.4387 7.04931 13.4606 7.2556C13.4866 7.49992 13.5 7.74827 13.5 8C13.5 9.64814 12.9266 11.1603 11.9678 12.3509C11.8815 12.458 11.726 12.5385 11.5232 12.5385H8.94888C8.71944 12.5385 8.49151 12.5015 8.27385 12.4289L6.27741 11.7634C5.9068 11.6399 5.5187 11.5769 5.12805 11.5769H4.62464C4.49354 11.1292 4.42308 10.6551 4.42308 10.1635C4.42308 9.28026 4.65057 8.45215 5.04985 7.73249Z" fill="black"/>
</svg>

<svg xmlns="http://www.w3.org/2000/svg" width="16" height="16" fill="none" viewBox="0 0 16 16">
    <path d="M8.212 2.23c0-.679.55-1.23 1.23-1.23 1.211 0 2.193.982 2.193 2.192 0 .755-.151 1.477-.425 2.135h1.68c.97 0 1.945.667 2.062 1.77Q15 7.542 15 8a8.4 8.4 0 0 1-1.864 5.292c-.41.51-1.023.747-1.613.747H8.95a3.6 3.6 0 0 1-1.15-.187l-1.996-.665a2.1 2.1 0 0 0-.675-.11h-.09c-.082.508-.485.962-1.108.962h-.582c-.843 0-1.704-.497-1.982-1.409A8.4 8.4 0 0 1 1 10.164c0-1.091.207-2.136.585-3.095.326-.827 1.137-1.261 1.927-1.261h.675c.343 0 .616.133.807.336q.147-.096.277-.26a6.55 6.55 0 0 1 2.072-1.738c.36-.192.606-.442.716-.716.1-.253.153-.522.153-.793zM3.58 7.309h-.068c-.276 0-.466.146-.531.311a6.9 6.9 0 0 0-.481 2.545c0 .707.105 1.388.301 2.029.055.178.25.346.547.346h.021a6.5 6.5 0 0 1-.446-2.375c0-1.024.236-1.993.657-2.856m1.47.424c.583-.134 1.068-.498 1.402-.923a5.05 5.05 0 0 1 1.596-1.34c.566-.3 1.124-.783 1.404-1.482.171-.43.26-.888.26-1.35v-.083a.69.69 0 0 1 .423.638c0 .625-.14 1.214-.391 1.74a1.3 1.3 0 0 0-.117.395h-.185a.75.75 0 0 0 0 1.5h3.448c.345 0 .549.222.57.429q.04.366.04.744a6.9 6.9 0 0 1-1.532 4.35.56.56 0 0 1-.445.189H8.95q-.347 0-.675-.11l-1.997-.666a3.6 3.6 0 0 0-1.149-.186h-.503a5 5 0 0 1-.202-1.413 5 5 0 0 1 .627-2.432" clip-rule="evenodd"/>
</svg>
